dist/assets/images/producersColor/Balfour_Beatty_logo 3.svg

<svg width="172" height="28" viewBox="0 0 172 28" fill="none" xmlns="http://www.w3.org/2000/svg">
<g clip-path="url(#clip0_351_1283)">
<path d="M10.7769 23.214C11.7355 22.8884 12.4628 22.4651 12.9256 21.9442C13.4215 21.4233 13.719 20.8372 13.9174 20.186C14.0826 19.5349 14.1818 18.8186 14.1818 18.0047V17.1256C14.1818 15.4651 14.0496 14.2605 13.8182 13.4791C13.5868 12.6651 13.157 12.1116 12.562 11.8186C12 11.5256 11.0744 11.3628 9.81818 11.2651V11.0698C10.9091 10.9395 11.7355 10.6465 12.4298 10.2558C13.124 9.83256 13.5537 9.31163 13.8182 8.72558C14.0826 8.10698 14.2149 7.32558 14.2149 6.47907V4.88372C14.2149 3.71163 14.0165 2.76744 13.6198 2.08372C13.2562 1.36744 12.4959 0.846512 11.4711 0.52093C10.4132 0.162791 8.92562 0 6.97521 0H0V23.6698H7.07438C8.59504 23.6698 9.81818 23.507 10.7769 23.214ZM5.61983 3.28837H6.7438C7.17355 3.28837 7.60331 3.4186 8 3.71163C8.36364 4.00465 8.56198 4.36279 8.56198 4.8186V7.94419C8.56198 8.43256 8.36364 8.82326 8 9.14884C7.63636 9.47442 7.1405 9.60465 6.57851 9.60465H5.61983V3.28837ZM5.61983 20.2512V13.0233H7.04132C7.47107 13.0233 7.83471 13.186 8.13223 13.5116C8.42975 13.8047 8.59504 14.1628 8.59504 14.6186L8.56198 18.4605C8.56198 18.9163 8.39669 19.3721 8.03306 19.6977C7.70248 20.0558 7.30579 20.2512 6.80992 20.2512H5.61983ZM23.1736 21.586L23.3058 23.6698H28.595C28.595 23.6372 28.562 23.4419 28.5289 23.0837C28.4628 22.693 28.4298 22.4326 28.4298 22.2372V9.08372C28.4298 8.4 28.2975 7.74884 28.0661 7.19535C27.8347 6.6093 27.5041 6.08837 26.9752 5.66512C26.4793 5.24186 25.8182 4.88372 25.0579 4.65581C24.2975 4.42791 23.3719 4.29767 22.281 4.29767C19.9669 4.29767 18.281 4.72093 17.1901 5.6C16.0661 6.51163 15.5372 7.6186 15.5372 9.08372V11.4605H20.8595V9.37674C20.8595 8.98605 20.9587 8.62791 21.1901 8.30233C21.3884 7.97674 21.6859 7.81395 22.0165 7.81395C22.7107 7.81395 23.1074 8.30233 23.1074 9.27907C23.1074 9.86512 23.0744 10.1581 22.9752 10.3535C22.9091 10.5163 22.7438 10.6791 22.5455 10.907C22.1818 11.2326 21.7521 11.5256 21.3223 11.8186C20.8926 12.0791 20.0661 12.5023 19.0083 13.1209C17.8843 13.707 17.157 14.1302 16.8264 14.4233C16.3636 14.9116 16 15.4977 15.8347 16.1163C15.6694 16.7023 15.5702 17.5488 15.5702 18.6233C15.6033 19.9907 15.6694 21.0651 15.8017 21.7488C15.9008 22.4 16.3306 22.986 17.0578 23.4744C17.719 23.9628 18.5124 24.1907 19.3058 24.1907C20.1983 24.1907 21.0248 23.9628 21.7851 23.507C22.4793 23.0512 22.876 22.4 23.0413 21.6837H23.1736V21.586ZM21.9835 19.9256C21.5868 19.9256 21.3223 19.7953 21.124 19.5349C20.9917 19.2744 20.8926 19.014 20.8926 18.7209V16.7349C20.8926 16.2791 21.0909 15.8558 21.4545 15.5302C21.5537 15.4 22.1157 14.9442 23.1074 14.1302V18.9488C23.1074 19.1116 23.0083 19.3395 22.843 19.5674C22.6777 19.8279 22.3802 19.9256 21.9835 19.9256ZM35.1405 0H29.8182V23.6698H35.1405V0ZM37.4215 23.6698H42.7438V8.20465H44.3306V4.75349H42.7438V4.06977C42.7438 3.5814 43.2727 3.28837 44.3636 3.28837V0H41.0909C40.2975 0 39.6033 0.162791 39.0413 0.488372C38.5124 0.781395 38.0826 1.30233 37.7851 2.0186C37.5207 2.70233 37.3884 3.61395 37.3884 4.75349H36.2975V8.20465H37.4215V23.6698ZM57.4545 21.293C57.8512 20.414 58.0496 19.3395 58.0496 18.1023V10.3209C58.0496 8.30233 57.5537 6.77209 56.4959 5.76279C55.4711 4.75349 53.8182 4.26512 51.5702 4.26512C49.9835 4.26512 48.7603 4.49302 47.8017 5.01395C46.8099 5.46977 46.1488 6.18605 45.7521 7.06512C45.3223 7.97674 45.124 9.05116 45.124 10.3209V18.1023C45.124 19.4047 45.3223 20.4465 45.7521 21.3581C46.1818 22.2698 46.876 22.9209 47.8347 23.4093C48.8264 23.8651 50.0496 24.093 51.6033 24.093C53.157 24.093 54.4463 23.8651 55.3719 23.3767C56.3306 22.8884 57.0248 22.2047 57.4545 21.293ZM52.7273 19.2744C52.7273 20.186 52.3306 20.6419 51.5372 20.6419C51.2066 20.6419 50.9091 20.5116 50.7438 20.2512C50.5455 19.9907 50.4463 19.6977 50.4463 19.2744V9.05116C50.4463 8.59535 50.5455 8.26977 50.7438 7.97674C50.9421 7.74884 51.2066 7.6186 51.5702 7.6186C51.9339 7.6186 52.2645 7.74884 52.4628 8.0093C52.6281 8.23721 52.7273 8.59535 52.7273 9.05116V19.2744ZM72.2645 23.6698V4.75349H66.9421V18.8837C66.9421 19.1442 66.843 19.3395 66.6116 19.5349C66.4132 19.7302 66.1157 19.8279 65.7851 19.8279C65.4215 19.8279 65.157 19.6977 64.9917 19.4372C64.8264 19.2093 64.6942 18.9488 64.6942 18.6233V4.75349H59.3719V20.3163C59.3719 21.0651 59.5041 21.7814 59.8017 22.3349C60.0992 22.9209 60.4959 23.3767 60.9917 23.6698C61.4876 23.9628 62.1157 24.1256 62.7769 24.1256C63.7686 24.1256 64.6281 23.8651 65.3554 23.3767C66.1488 22.8558 66.6777 22.2047 67.0413 21.5209V23.7023H72.2645V23.6698ZM81.157 9.73488V14.9116H86.4793V8.0093C86.4793 6.96744 86.1488 6.05581 85.4876 5.37209C84.8595 4.68837 84 4.36279 83.0083 4.36279C81.124 4.36279 79.7355 5.27442 78.8099 7.09767V4.8186H73.6198V23.7023H78.9421V9.73488C78.9421 9.4093 79.0744 9.1814 79.3388 8.95349C79.5702 8.75814 79.8347 8.66047 80.0992 8.66047C80.3967 8.66047 80.6281 8.75814 80.8264 8.95349C81.0578 9.1814 81.157 9.44186 81.157 9.73488ZM107.174 0.488372C106.116 0.162791 104.628 0 102.678 0H95.7025V23.6698H102.81C104.331 23.6698 105.521 23.507 106.512 23.214C107.471 22.8884 108.198 22.4651 108.661 21.9442C109.157 21.4233 109.455 20.8372 109.62 20.186C109.785 19.5349 109.884 18.8186 109.884 18.0047V17.1256C109.884 15.4651 109.752 14.2605 109.521 13.4791C109.289 12.6651 108.86 12.1116 108.264 11.8186C107.702 11.5256 106.777 11.3628 105.554 11.2651V11.0698C106.612 10.9395 107.471 10.6465 108.132 10.2558C108.793 9.83256 109.256 9.31163 109.521 8.72558C109.785 8.10698 109.917 7.32558 109.917 6.47907V4.88372C109.917 3.71163 109.719 2.76744 109.322 2.08372C108.959 1.36744 108.231 0.846512 107.174 0.488372ZM101.355 3.28837H102.479C102.909 3.28837 103.339 3.4186 103.736 3.71163C104.099 4.00465 104.298 4.36279 104.298 4.8186V7.94419C104.298 8.43256 104.099 8.82326 103.736 9.14884C103.372 9.47442 102.876 9.60465 102.314 9.60465H101.388V3.28837H101.355ZM104.298 18.493C104.298 18.9488 104.132 19.4047 103.736 19.7302C103.405 20.0884 103.008 20.2837 102.512 20.2837H101.322V13.0233H102.744C103.174 13.0233 103.504 13.186 103.835 13.5116C104.132 13.8047 104.298 14.1628 104.298 14.6186V18.493ZM122.545 5.66512C121.488 4.72093 119.835 4.26512 117.554 4.26512C116.033 4.26512 114.843 4.49302 113.884 5.01395C112.959 5.46977 112.264 6.15349 111.868 7.03256C111.405 7.87907 111.24 8.95349 111.24 10.1907V18.2C111.24 22.1395 113.388 24.1256 117.686 24.1256C118.81 24.1256 119.769 23.9953 120.628 23.7349C121.421 23.4419 122.116 23.0837 122.645 22.5954C123.14 22.107 123.57 21.5535 123.802 20.9023C124.033 20.2837 124.165 19.6326 124.165 18.9814V16.3116H118.843V19.4372C118.843 19.7628 118.744 20.0558 118.545 20.3163C118.347 20.5442 118.05 20.6419 117.719 20.6419C117.421 20.6419 117.157 20.5116 116.926 20.2837C116.694 20.0233 116.595 19.7628 116.595 19.4698V14.7163H124.165V9.27907C124.132 7.81395 123.57 6.6093 122.545 5.66512ZM118.81 11.5256H116.562V9.27907C116.562 8.17209 116.926 7.65116 117.686 7.65116C118.017 7.65116 118.314 7.7814 118.512 8.0093C118.711 8.26977 118.81 8.53023 118.81 8.82326V11.5256ZM138.314 22.2698V9.08372C138.314 8.4 138.182 7.74884 137.95 7.19535C137.719 6.6093 137.355 6.08837 136.859 5.66512C136.364 5.24186 135.702 4.88372 134.942 4.65581C134.149 4.42791 133.256 4.29767 132.165 4.29767C129.884 4.29767 128.165 4.72093 127.074 5.6C125.95 6.51163 125.421 7.6186 125.421 9.08372V11.4605H130.744V9.37674C130.744 8.98605 130.843 8.62791 131.074 8.30233C131.273 7.97674 131.603 7.81395 131.901 7.81395C132.628 7.81395 132.992 8.30233 132.992 9.27907C132.992 9.86512 132.959 10.1581 132.859 10.3535C132.793 10.5163 132.628 10.6791 132.43 10.907C132.066 11.2326 131.669 11.5256 131.174 11.8186C130.744 12.0791 129.917 12.5023 128.859 13.1209C127.736 13.707 127.008 14.1302 126.678 14.4233C126.215 14.9116 125.884 15.4977 125.686 16.1163C125.521 16.7023 125.421 17.5488 125.421 18.6233C125.455 19.9907 125.521 21.0651 125.653 21.7488C125.752 22.4 126.215 22.986 126.909 23.4744C127.57 23.9628 128.364 24.1907 129.157 24.1907C130.083 24.1907 130.876 23.9628 131.636 23.507C132.331 23.0512 132.76 22.4 132.893 21.6837H133.058L133.19 23.7674H138.479C138.479 23.7349 138.446 23.5395 138.413 23.1814C138.347 22.7256 138.314 22.4326 138.314 22.2698ZM132.992 18.9488C132.992 19.1116 132.893 19.3395 132.727 19.5674C132.562 19.8279 132.264 19.9256 131.868 19.9256C131.438 19.9256 131.174 19.7953 131.008 19.5349C130.876 19.2744 130.777 19.014 130.777 18.7209V16.7349C130.777 16.2791 130.975 15.8558 131.339 15.5302C131.438 15.4 132 14.9442 132.992 14.1302V18.9488ZM155.901 1.26977H150.579V4.75349H146.347V1.26977H141.025V4.75349H139.24V8.20465H141.025V20.0884C141.025 21.1953 141.355 22.0419 142.017 22.693C142.678 23.3442 143.57 23.6698 144.661 23.6698H148.694V20.414H147.669C146.777 20.414 146.347 20.1209 146.347 19.5349V8.20465H150.579V20.0884C150.579 21.1953 150.909 22.0744 151.57 22.693C152.264 23.3442 153.124 23.6698 154.182 23.6698H158.215V20.414H157.19C156.264 20.414 155.835 20.1209 155.835 19.5349V8.20465H158.182V4.75349H155.835V1.26977H155.901ZM167.504 4.75349C167.438 5.24186 167.339 5.76279 167.174 6.34884C167.074 6.90233 166.975 7.52093 166.843 8.10698C166.744 8.72558 166.678 9.31163 166.579 9.89767C166.512 10.4837 166.479 11.0698 166.38 11.5907C166.05 13.8372 165.785 16.0837 165.719 18.2977H165.587C165.521 16.4093 165.289 14.2605 164.893 11.7535C164.826 11.2326 164.793 10.7767 164.694 10.2558C164.628 9.8 164.562 9.21395 164.463 8.59535C164.364 8.0093 164.264 7.32558 164.132 6.6093C164.099 6.34884 164.066 6.08837 164.033 5.95814C164 5.76279 163.967 5.6 163.934 5.40465C163.901 5.24186 163.901 5.11163 163.868 5.01395C163.868 4.91628 163.835 4.85116 163.835 4.78605H158.512C160 11.5581 160.926 15.986 161.455 18.1349C162.281 21.6837 162.711 23.6047 162.711 23.9628C162.711 24.1907 162.645 24.386 162.479 24.4837C162.314 24.614 162.182 24.6791 162.05 24.6791H159.008V28H164.198C164.661 28 165.124 27.9023 165.554 27.707C165.983 27.5116 166.347 27.3163 166.545 27.0233C167.008 26.5674 167.372 25.8186 167.636 24.8419C167.901 23.8651 168.264 22.3023 168.727 20.2186C170.215 12.9907 171.339 7.84651 172.033 4.72093H167.504V4.75349Z" fill="#005D99"/>
</g>
<defs>
<clipPath id="clip0_351_1283">
<rect width="172" height="28" fill="white"/>
</clipPath>
</defs>
</svg>

<svg width="172" height="28" fill="none" xmlns="http://www.w3.org/2000/svg"><g clip-path="url(#clip0_351_1283)"><path d="M10.777 23.214c.959-.326 1.686-.749 2.149-1.27.495-.52.793-1.107.991-1.758a8.78 8.78 0 00.265-2.181v-.88c0-1.66-.132-2.864-.364-3.646-.231-.814-.661-1.367-1.256-1.66-.562-.293-1.488-.456-2.744-.554v-.195c1.091-.13 1.918-.424 2.612-.814.694-.423 1.124-.944 1.388-1.53.265-.619.397-1.4.397-2.247V4.884c0-1.172-.198-2.117-.595-2.8-.364-.717-1.124-1.237-2.15-1.564C10.413.163 8.926 0 6.975 0H0v23.67h7.074c1.521 0 2.744-.163 3.703-.456zM5.62 3.288h1.124c.43 0 .86.13 1.256.424.364.293.562.65.562 1.107v3.125c0 .489-.198.88-.562 1.205-.364.325-.86.456-1.421.456h-.96V3.288zm0 16.963v-7.228h1.42c.43 0 .794.163 1.091.489.298.293.463.65.463 1.107l-.033 3.841c0 .456-.165.912-.529 1.238-.33.358-.727.553-1.223.553H5.62zm17.554 1.335l.132 2.084h5.289c0-.033-.033-.228-.066-.586-.066-.391-.1-.651-.1-.847V9.084a4.93 4.93 0 00-.363-1.889c-.231-.586-.562-1.107-1.09-1.53-.497-.423-1.158-.781-1.918-1.01-.76-.227-1.686-.357-2.777-.357-2.314 0-4 .423-5.09 1.302-1.125.912-1.654 2.019-1.654 3.484v2.377h5.322V9.377c0-.391.1-.75.331-1.075.198-.325.496-.488.826-.488.695 0 1.091.488 1.091 1.465 0 .586-.033.88-.132 1.075-.066.162-.231.325-.43.553-.363.326-.793.619-1.223.912-.43.26-1.256.683-2.314 1.302-1.124.586-1.851 1.01-2.182 1.302-.462.489-.826 1.075-.991 1.693-.166.586-.265 1.433-.265 2.507.033 1.368.1 2.442.232 3.126.099.651.529 1.237 1.256 1.725a3.765 3.765 0 002.248.717c.892 0 1.719-.228 2.48-.684a2.909 2.909 0 001.255-1.823h.133v-.098zm-1.19-1.66c-.397 0-.662-.13-.86-.391-.132-.26-.231-.521-.231-.814v-1.986c0-.456.198-.88.561-1.205.1-.13.662-.586 1.653-1.4v4.819c0 .163-.099.39-.264.618-.165.26-.463.359-.86.359zM35.14 0h-5.323v23.67h5.323V0zm2.28 23.67h5.323V8.205h1.587V4.753h-1.587V4.07c0-.489.529-.782 1.62-.782V0H41.09c-.794 0-1.488.163-2.05.488-.529.293-.958.814-1.256 1.53-.264.684-.397 1.596-.397 2.735h-1.09v3.452h1.123V23.67zm20.034-2.377c.396-.879.595-1.953.595-3.19V10.32c0-2.019-.496-3.549-1.554-4.558-1.025-1.01-2.678-1.498-4.926-1.498-1.587 0-2.81.228-3.768.749a4.023 4.023 0 00-2.05 2.051c-.43.912-.628 1.986-.628 3.256v7.781c0 1.303.198 2.345.628 3.256.43.912 1.124 1.563 2.083 2.051.991.456 2.215.684 3.768.684 1.554 0 2.843-.228 3.769-.716.959-.489 1.653-1.172 2.083-2.084zm-4.728-2.019c0 .912-.396 1.368-1.19 1.368-.33 0-.628-.13-.793-.39-.199-.261-.298-.554-.298-.978V9.051c0-.456.1-.781.298-1.074.198-.228.463-.358.826-.358.364 0 .694.13.893.39.165.228.264.586.264 1.042v10.223zm19.538 4.396V4.753h-5.323v14.13c0 .261-.099.457-.33.652-.199.195-.496.293-.827.293-.364 0-.628-.13-.793-.39-.166-.229-.298-.49-.298-.815V4.753h-5.322v15.563c0 .75.132 1.465.43 2.019.297.586.694 1.042 1.19 1.335.496.293 1.124.456 1.785.456.992 0 1.851-.26 2.578-.75a4.968 4.968 0 001.686-1.855v2.181h5.224v-.032zm8.892-13.935v5.177h5.322V8.009c0-1.042-.33-1.953-.991-2.637-.629-.684-1.488-1.01-2.48-1.01-1.884 0-3.272.912-4.198 2.736v-2.28h-5.19v18.884h5.322V9.735c0-.326.132-.554.397-.782.231-.195.496-.293.76-.293a.98.98 0 01.727.293c.232.228.331.489.331.782zM107.174.488C106.116.163 104.628 0 102.678 0h-6.975v23.67h7.107c1.521 0 2.711-.163 3.702-.456.959-.326 1.686-.749 2.149-1.27.496-.52.794-1.107.959-1.758a8.79 8.79 0 00.264-2.181v-.88c0-1.66-.132-2.864-.363-3.646-.232-.814-.661-1.367-1.257-1.66-.562-.293-1.487-.456-2.71-.554v-.195c1.058-.13 1.917-.424 2.578-.814.661-.423 1.124-.944 1.389-1.53.264-.619.396-1.4.396-2.247V4.884c0-1.172-.198-2.117-.595-2.8-.363-.717-1.091-1.237-2.148-1.596zm-5.819 2.8h1.124c.43 0 .86.13 1.257.424.363.293.562.65.562 1.107v3.125c0 .489-.199.88-.562 1.205-.364.325-.86.456-1.422.456h-.926V3.288h-.033zm2.943 15.205c0 .456-.166.912-.562 1.237-.331.358-.728.554-1.224.554h-1.19v-7.26h1.422c.43 0 .76.162 1.091.488.297.293.463.65.463 1.107v3.874zm18.247-12.828c-1.057-.944-2.71-1.4-4.991-1.4-1.521 0-2.711.228-3.67.749-.925.456-1.62 1.14-2.016 2.019-.463.846-.628 1.92-.628 3.158V18.2c0 3.94 2.148 5.926 6.446 5.926 1.124 0 2.083-.13 2.942-.391.793-.293 1.488-.651 2.017-1.14.495-.488.925-1.041 1.157-1.693a5.51 5.51 0 00.363-1.92v-2.67h-5.322v3.125c0 .326-.099.619-.298.88-.198.227-.495.325-.826.325-.298 0-.562-.13-.793-.358-.232-.26-.331-.521-.331-.814v-4.754h7.57V9.28c-.033-1.465-.595-2.67-1.62-3.614zm-3.735 5.86h-2.248V9.28c0-1.107.364-1.628 1.124-1.628.331 0 .628.13.826.358.199.26.298.521.298.814v2.703zm19.504 10.745V9.084a4.93 4.93 0 00-.364-1.889 3.852 3.852 0 00-1.091-1.53c-.495-.423-1.157-.781-1.917-1.01-.793-.227-1.686-.357-2.777-.357-2.281 0-4 .423-5.091 1.302-1.124.912-1.653 2.019-1.653 3.484v2.377h5.323V9.377c0-.391.099-.75.33-1.075a.989.989 0 01.827-.488c.727 0 1.091.488 1.091 1.465 0 .586-.033.88-.133 1.075-.066.162-.231.325-.429.553a7.775 7.775 0 01-1.256.912c-.43.26-1.257.683-2.315 1.302-1.123.586-1.851 1.01-2.181 1.302a4.413 4.413 0 00-.992 1.693c-.165.586-.265 1.433-.265 2.507.034 1.368.1 2.442.232 3.126.099.651.562 1.237 1.256 1.725a3.766 3.766 0 002.248.717c.926 0 1.719-.228 2.479-.684.695-.456 1.124-1.107 1.257-1.823h.165l.132 2.083h5.289c0-.032-.033-.227-.066-.586-.066-.455-.099-.748-.099-.911zm-5.322-3.321c0 .163-.099.39-.265.618-.165.26-.463.359-.859.359-.43 0-.694-.13-.86-.391-.132-.26-.231-.521-.231-.814v-1.986c0-.456.198-.88.562-1.205.099-.13.661-.586 1.653-1.4v4.819zm22.909-17.68h-5.322v3.484h-4.232V1.27h-5.322v3.483h-1.785v3.452h1.785v11.883c0 1.107.33 1.954.992 2.605.661.651 1.553.977 2.644.977h4.033v-3.256h-1.025c-.892 0-1.322-.293-1.322-.88V8.205h4.232v11.884c0 1.107.33 1.986.991 2.605.694.651 1.554.977 2.612.977h4.033v-3.256h-1.025c-.926 0-1.355-.293-1.355-.88V8.205h2.347v-3.45h-2.347V1.27h.066zm11.603 3.484c-.066.489-.165 1.01-.33 1.596-.1.553-.199 1.172-.331 1.758-.099.619-.165 1.205-.264 1.79-.067.587-.1 1.173-.199 1.694-.33 2.246-.595 4.493-.661 6.707h-.132c-.066-1.889-.298-4.037-.694-6.544-.067-.521-.1-.977-.199-1.498-.066-.456-.132-1.042-.231-1.66-.099-.587-.199-1.27-.331-1.987a7.207 7.207 0 00-.099-.65c-.033-.196-.066-.359-.099-.554-.033-.163-.033-.293-.066-.391 0-.098-.033-.163-.033-.228h-5.323c1.488 6.772 2.414 11.2 2.943 13.349.826 3.549 1.256 5.47 1.256 5.828 0 .228-.066.423-.232.52-.165.131-.297.196-.429.196h-3.042V28h5.19a3.28 3.28 0 001.356-.293c.429-.195.793-.39.991-.684.463-.456.827-1.204 1.091-2.181.265-.977.628-2.54 1.091-4.623a1013.86 1013.86 0 013.306-15.498h-4.529v.032z" fill="#005D99"/></g><defs><clipPath id="clip0_351_1283"><path fill="#fff" d="M0 0h172v28H0z"/></clipPath></defs></svg>
